docs/images/icons/viber-white.svg

<svg width="24.6" height="24.601" fill="none" xmlns="http://www.w3.org/2000/svg"><path d="M12.29.3c-6.62 0-12 5.37-12 12 0 2.12.59 4.11 1.56 5.84L.31 23.63c-.02.09-.02.18 0 .27.02.09.07.17.13.24.07.06.14.11.23.13.09.03.18.03.27.01l5.73-1.42c1.68.9 3.59 1.44 5.62 1.44 6.63 0 12-5.38 12-12 0-6.63-5.37-12-12-12Zm0 1.04c6.06 0 10.96 4.9 10.96 10.96 0 6.05-4.9 10.95-10.96 10.95-1.94 0-3.76-.5-5.34-1.39a.55.55 0 0 0-.38-.05l-5.01 1.24 1.34-4.79c.02-.07.03-.14.02-.21a.48.48 0 0 0-.07-.2 10.91 10.91 0 0 1-1.51-5.55c0-6.06 4.9-10.96 10.95-10.96ZM7.93 6.03c-.33 0-.81.13-1.2.55-.24.26-1.22 1.21-1.22 2.89 0 1.76 1.22 3.27 1.37 3.47-.02-.02.18.27.45.62s.64.8 1.11 1.3c.94.99 2.27 2.13 3.91 2.84.76.32 1.35.51 1.8.65.84.27 1.6.23 2.18.14.43-.06.9-.27 1.37-.56.46-.3.92-.67 1.12-1.22.15-.4.22-.77.25-1.08.01-.15.01-.28 0-.41-.01-.12 0-.22-.11-.41-.25-.4-.52-.41-.81-.55-.16-.08-.61-.3-1.07-.52-.45-.21-.85-.41-1.09-.49-.15-.06-.34-.14-.61-.11-.27.03-.54.23-.69.46-.15.22-.74.92-.92 1.12 0 0 .01.01-.06-.03-.22-.11-.5-.2-.9-.41-.4-.22-.91-.53-1.46-1.02-.83-.73-1.4-1.64-1.59-1.94l.03-.03c.19-.18.35-.4.49-.56.2-.23.28-.43.38-.61.19-.38.08-.79-.03-1.01.01.02-.06-.13-.13-.3-.07-.17-.16-.39-.26-.62-.19-.47-.41-1-.54-1.3-.15-.37-.36-.63-.63-.75-.27-.13-.51-.09-.52-.09-.19-.01-.41-.02-.62-.02Zm0 1.05c.21 0 .4 0 .57.01.17.01.16.01.13-.01-.04-.01.01-.02.11.21.12.3.34.83.54 1.3l.26.63c.08.17.11.27.16.36.05.09.04.04.03.07-.11.22-.13.27-.24.4-.17.19-.34.41-.43.5-.08.08-.23.2-.32.44s-.05.57.1.82c.19.33.83 1.36 1.82 2.23.62.55 1.2.91 1.66 1.16.47.24.84.39.93.43.2.1.42.17.67.14.26-.03.48-.18.62-.34.18-.21.74-.84 1-1.23.01 0 .01 0 .1.03.04.01.54.24.99.45.45.22.91.44 1.06.52.21.1.31.17.34.17v.17c-.02.21-.08.5-.19.81-.05.15-.34.47-.7.7-.36.22-.8.39-.96.41-.49.07-1.07.1-1.71-.1-.44-.14-1-.32-1.71-.62-1.45-.62-2.68-1.67-3.56-2.6-.44-.46-.79-.89-1.04-1.22-.25-.32-.36-.49-.45-.61-.16-.22-1.15-1.6-1.15-2.84 0-1.31.6-1.82.94-2.18.17-.18.36-.21.43-.21Z" fill="#FFF"/><path d="M.29 12.3c0 2.12.59 4.11 1.56 5.84L.31 23.63c-.02.09-.02.18 0 .27.02.09.07.17.13.24.07.06.14.11.23.13.09.03.18.03.27.01l5.73-1.42c1.68.9 3.59 1.44 5.62 1.44 6.63 0 12-5.38 12-12 0-6.63-5.37-12-12-12-6.62 0-12 5.37-12 12Zm22.96 0c0 6.05-4.9 10.95-10.96 10.95-1.94 0-3.76-.5-5.34-1.39a.55.55 0 0 0-.38-.05l-5.01 1.24 1.34-4.79c.02-.07.03-.14.02-.21a.48.48 0 0 0-.07-.2 10.91 10.91 0 0 1-1.51-5.55c0-6.06 4.9-10.96 10.95-10.96 6.06 0 10.96 4.9 10.96 10.96ZM6.73 6.58c-.24.26-1.22 1.21-1.22 2.89 0 1.76 1.22 3.27 1.37 3.47-.02-.02.18.27.45.62s.64.8 1.11 1.3c.94.99 2.27 2.13 3.91 2.84.76.32 1.35.51 1.8.65.84.27 1.6.23 2.18.14.43-.06.9-.27 1.37-.56.46-.3.92-.67 1.12-1.22.15-.4.22-.77.25-1.08.01-.15.01-.28 0-.41-.01-.12 0-.22-.11-.41-.25-.4-.52-.41-.81-.55-.16-.08-.61-.3-1.07-.52-.45-.21-.85-.41-1.09-.49-.15-.06-.34-.14-.61-.11-.27.03-.54.23-.69.46-.15.22-.74.92-.92 1.12 0 0 .01.01-.06-.03-.22-.11-.5-.2-.9-.41-.4-.22-.91-.53-1.46-1.02-.83-.73-1.4-1.64-1.59-1.94l.03-.03c.19-.18.35-.4.49-.56.2-.23.28-.43.38-.61.19-.38.08-.79-.03-1.01.01.02-.06-.13-.13-.3-.07-.17-.16-.39-.26-.62-.19-.47-.41-1-.54-1.3-.15-.37-.36-.63-.63-.75-.27-.13-.51-.09-.52-.09-.19-.01-.41-.02-.62-.02-.33 0-.81.13-1.2.55Zm1.77.51c.17.01.16.01.13-.01-.04-.01.01-.02.11.21.12.3.34.83.54 1.3l.26.63c.08.17.11.27.16.36.05.09.04.04.03.07-.11.22-.13.27-.24.4-.17.19-.34.41-.43.5-.08.08-.23.2-.32.44s-.05.57.1.82c.19.33.83 1.36 1.82 2.23.62.55 1.2.91 1.66 1.16.47.24.84.39.93.43.2.1.42.17.67.14.26-.03.48-.18.62-.34.18-.21.74-.84 1-1.23.01 0 .01 0 .1.03.04.01.54.24.99.45.45.22.91.44 1.06.52.21.1.31.17.34.17v.17c-.02.21-.08.5-.19.81-.05.15-.34.47-.7.7-.36.22-.8.39-.96.41-.49.07-1.07.1-1.71-.1-.44-.14-1-.32-1.71-.62-1.45-.62-2.68-1.67-3.56-2.6-.44-.46-.79-.89-1.04-1.22-.25-.32-.36-.49-.45-.61-.16-.22-1.15-1.6-1.15-2.84 0-1.31.6-1.82.94-2.18.17-.18.36-.21.43-.21.21 0 .4 0 .57.01Z" stroke="#FFF" stroke-width=".6"/></svg>

<svg width="24.599609" height="24.600586" viewBox="0 0 24.5996 24.6006" fill="none" xmlns="http://www.w3.org/2000/svg" xmlns:xlink="http://www.w3.org/1999/xlink">
	<desc>
			Created with Pixso.
	</desc>
	<defs/>
	<path id="Vector" d="M12.29 0.3C5.67 0.3 0.29 5.67 0.29 12.3C0.29 14.42 0.88 16.41 1.85 18.14L0.31 23.63C0.29 23.72 0.29 23.81 0.31 23.9C0.33 23.99 0.38 24.07 0.44 24.14C0.51 24.2 0.58 24.25 0.67 24.27C0.76 24.3 0.85 24.3 0.94 24.28L6.67 22.86C8.35 23.76 10.26 24.3 12.29 24.3C18.92 24.3 24.29 18.92 24.29 12.3C24.29 5.67 18.92 0.3 12.29 0.3ZM12.29 1.34C18.35 1.34 23.25 6.24 23.25 12.3C23.25 18.35 18.35 23.25 12.29 23.25C10.35 23.25 8.53 22.75 6.95 21.86C6.84 21.8 6.7 21.78 6.57 21.81L1.56 23.05L2.9 18.26C2.92 18.19 2.93 18.12 2.92 18.05C2.91 17.98 2.89 17.91 2.85 17.85C1.89 16.22 1.34 14.32 1.34 12.3C1.34 6.24 6.24 1.34 12.29 1.34ZM7.93 6.03C7.6 6.03 7.12 6.16 6.73 6.58C6.49 6.84 5.51 7.79 5.51 9.47C5.51 11.23 6.73 12.74 6.88 12.94L6.88 12.94L6.88 12.94C6.86 12.92 7.06 13.21 7.33 13.56C7.6 13.91 7.97 14.36 8.44 14.86C9.38 15.85 10.71 16.99 12.35 17.7C13.11 18.02 13.7 18.21 14.15 18.35C14.99 18.62 15.75 18.58 16.33 18.49C16.76 18.43 17.23 18.22 17.7 17.93C18.16 17.63 18.62 17.26 18.82 16.71C18.97 16.31 19.04 15.94 19.07 15.63C19.08 15.48 19.08 15.35 19.07 15.22C19.06 15.1 19.07 15 18.96 14.81C18.71 14.41 18.44 14.4 18.15 14.26C17.99 14.18 17.54 13.96 17.08 13.74C16.63 13.53 16.23 13.33 15.99 13.25C15.84 13.19 15.65 13.11 15.38 13.14C15.11 13.17 14.84 13.37 14.69 13.6C14.54 13.82 13.95 14.52 13.77 14.72C13.77 14.72 13.78 14.73 13.71 14.69C13.49 14.58 13.21 14.49 12.81 14.28C12.41 14.06 11.9 13.75 11.35 13.26L11.35 13.26C10.52 12.53 9.95 11.62 9.76 11.32C9.78 11.3 9.76 11.32 9.79 11.29L9.79 11.29C9.98 11.11 10.14 10.89 10.28 10.73C10.48 10.5 10.56 10.3 10.66 10.12C10.85 9.74 10.74 9.33 10.63 9.11L10.63 9.11C10.64 9.13 10.57 8.98 10.5 8.81C10.43 8.64 10.34 8.42 10.24 8.19C10.05 7.72 9.83 7.19 9.7 6.89L9.7 6.89C9.55 6.52 9.34 6.26 9.07 6.14C8.8 6.01 8.56 6.05 8.55 6.05L8.55 6.05C8.36 6.04 8.14 6.03 7.93 6.03ZM7.93 7.08C8.14 7.08 8.33 7.08 8.5 7.09C8.67 7.1 8.66 7.1 8.63 7.08C8.59 7.07 8.64 7.06 8.74 7.29C8.86 7.59 9.08 8.12 9.28 8.59C9.38 8.83 9.47 9.05 9.54 9.22C9.62 9.39 9.65 9.49 9.7 9.58L9.7 9.58L9.7 9.58C9.75 9.67 9.74 9.62 9.73 9.65C9.62 9.87 9.6 9.92 9.49 10.05C9.32 10.24 9.15 10.46 9.06 10.55C8.98 10.63 8.83 10.75 8.74 10.99C8.65 11.23 8.69 11.56 8.84 11.81C9.03 12.14 9.67 13.17 10.66 14.04C11.28 14.59 11.86 14.95 12.32 15.2C12.79 15.44 13.16 15.59 13.25 15.63C13.45 15.73 13.67 15.8 13.92 15.77C14.18 15.74 14.4 15.59 14.54 15.43L14.54 15.43C14.72 15.22 15.28 14.59 15.54 14.2C15.55 14.2 15.55 14.2 15.64 14.23L15.64 14.23L15.64 14.23C15.68 14.24 16.18 14.47 16.63 14.68C17.08 14.9 17.54 15.12 17.69 15.2C17.9 15.3 18 15.37 18.03 15.37C18.03 15.42 18.03 15.47 18.03 15.54C18.01 15.75 17.95 16.04 17.84 16.35C17.79 16.5 17.5 16.82 17.14 17.05C16.78 17.27 16.34 17.44 16.18 17.46C15.69 17.53 15.11 17.56 14.47 17.36C14.03 17.22 13.47 17.04 12.76 16.74C11.31 16.12 10.08 15.07 9.2 14.14C8.76 13.68 8.41 13.25 8.16 12.92C7.91 12.6 7.8 12.43 7.71 12.31L7.71 12.31C7.55 12.09 6.56 10.71 6.56 9.47C6.56 8.16 7.16 7.65 7.5 7.29C7.67 7.11 7.86 7.08 7.93 7.08Z" fill="#FFFFFF" fill-opacity="1.000000" fill-rule="nonzero"/>
	<path id="Vector" d="M0.29 12.3C0.29 14.42 0.88 16.41 1.85 18.14L0.31 23.63C0.29 23.72 0.29 23.81 0.31 23.9C0.33 23.99 0.38 24.07 0.44 24.14C0.51 24.2 0.58 24.25 0.67 24.27C0.76 24.3 0.85 24.3 0.94 24.28L6.67 22.86C8.35 23.76 10.26 24.3 12.29 24.3C18.92 24.3 24.29 18.92 24.29 12.3C24.29 5.67 18.92 0.3 12.29 0.3C5.67 0.3 0.29 5.67 0.29 12.3ZM23.25 12.3C23.25 18.35 18.35 23.25 12.29 23.25C10.35 23.25 8.53 22.75 6.95 21.86C6.84 21.8 6.7 21.78 6.57 21.81L1.56 23.05L2.9 18.26C2.92 18.19 2.93 18.12 2.92 18.05C2.91 17.98 2.89 17.91 2.85 17.85C1.89 16.22 1.34 14.32 1.34 12.3C1.34 6.24 6.24 1.34 12.29 1.34C18.35 1.34 23.25 6.24 23.25 12.3ZM6.73 6.58C6.49 6.84 5.51 7.79 5.51 9.47C5.51 11.23 6.73 12.74 6.88 12.94L6.88 12.94L6.88 12.94C6.86 12.92 7.06 13.21 7.33 13.56C7.6 13.91 7.97 14.36 8.44 14.86C9.38 15.85 10.71 16.99 12.35 17.7C13.11 18.02 13.7 18.21 14.15 18.35C14.99 18.62 15.75 18.58 16.33 18.49C16.76 18.43 17.23 18.22 17.7 17.93C18.16 17.63 18.62 17.26 18.82 16.71C18.97 16.31 19.04 15.94 19.07 15.63C19.08 15.48 19.08 15.35 19.07 15.22C19.06 15.1 19.07 15 18.96 14.81C18.71 14.41 18.44 14.4 18.15 14.26C17.99 14.18 17.54 13.96 17.08 13.74C16.63 13.53 16.23 13.33 15.99 13.25C15.84 13.19 15.65 13.11 15.38 13.14C15.11 13.17 14.84 13.37 14.69 13.6C14.54 13.82 13.95 14.52 13.77 14.72C13.77 14.72 13.78 14.73 13.71 14.69C13.49 14.58 13.21 14.49 12.81 14.28C12.41 14.06 11.9 13.75 11.35 13.26L11.35 13.26C10.52 12.53 9.95 11.62 9.76 11.32C9.78 11.3 9.76 11.32 9.79 11.29L9.79 11.29C9.98 11.11 10.14 10.89 10.28 10.73C10.48 10.5 10.56 10.3 10.66 10.12C10.85 9.74 10.74 9.33 10.63 9.11L10.63 9.11C10.64 9.13 10.57 8.98 10.5 8.81C10.43 8.64 10.34 8.42 10.24 8.19C10.05 7.72 9.83 7.19 9.7 6.89L9.7 6.89C9.55 6.52 9.34 6.26 9.07 6.14C8.8 6.01 8.56 6.05 8.55 6.05L8.55 6.05C8.36 6.04 8.14 6.03 7.93 6.03C7.6 6.03 7.12 6.16 6.73 6.58ZM8.5 7.09C8.67 7.1 8.66 7.1 8.63 7.08C8.59 7.07 8.64 7.06 8.74 7.29C8.86 7.59 9.08 8.12 9.28 8.59C9.38 8.83 9.47 9.05 9.54 9.22C9.62 9.39 9.65 9.49 9.7 9.58L9.7 9.58L9.7 9.58C9.75 9.67 9.74 9.62 9.73 9.65C9.62 9.87 9.6 9.92 9.49 10.05C9.32 10.24 9.15 10.46 9.06 10.55C8.98 10.63 8.83 10.75 8.74 10.99C8.65 11.23 8.69 11.56 8.84 11.81C9.03 12.14 9.67 13.17 10.66 14.04C11.28 14.59 11.86 14.95 12.32 15.2C12.79 15.44 13.16 15.59 13.25 15.63C13.45 15.73 13.67 15.8 13.92 15.77C14.18 15.74 14.4 15.59 14.54 15.43L14.54 15.43C14.72 15.22 15.28 14.59 15.54 14.2C15.55 14.2 15.55 14.2 15.64 14.23L15.64 14.23L15.64 14.23C15.68 14.24 16.18 14.47 16.63 14.68C17.08 14.9 17.54 15.12 17.69 15.2C17.9 15.3 18 15.37 18.03 15.37C18.03 15.42 18.03 15.47 18.03 15.54C18.01 15.75 17.95 16.04 17.84 16.35C17.79 16.5 17.5 16.82 17.14 17.05C16.78 17.27 16.34 17.44 16.18 17.46C15.69 17.53 15.11 17.56 14.47 17.36C14.03 17.22 13.47 17.04 12.76 16.74C11.31 16.12 10.08 15.07 9.2 14.14C8.76 13.68 8.41 13.25 8.16 12.92C7.91 12.6 7.8 12.43 7.71 12.31L7.71 12.31C7.55 12.09 6.56 10.71 6.56 9.47C6.56 8.16 7.16 7.65 7.5 7.29C7.67 7.11 7.86 7.08 7.93 7.08C8.14 7.08 8.33 7.08 8.5 7.09Z" stroke="#FFFFFF" stroke-opacity="1.000000" stroke-width="0.600000"/>
</svg>
